X:45848
M:3/4
K:Ddor
^F2^F^G^F=F|^D2^D=F^F^G|^A2^c2-^c=c|^A4-:|^A2^F^A^F^A|^F2^A^F^A^c|=c2^G=c^G=c|^G2=c^G(3=c^c^d|^A2-^A^G^F=F|^D=F-=F2^F2|=F2^C2-^C^C|^D4:|
